src/assets/icons/letters,simple,sans-w.svg

<svg width="48" height="48" viewBox="0 0 48 48" fill="none" xmlns="http://www.w3.org/2000/svg">
<rect opacity="0.2" x="5" y="5" width="38" height="38" rx="4" fill="black"/>
<path d="M14.9744 36H19.62L23.9023 21.2596H24.0784L28.3718 36H33.0174L39.4684 13.4545H34.2613L30.5294 29.1527H30.3313L26.2251 13.4545H21.7666L17.6495 29.1197H17.4623L13.7304 13.4545H8.52339L14.9744 36Z" fill="black"/>
</svg>

<svg xmlns="http://www.w3.org/2000/svg" width="48" height="48" fill="none" viewBox="0 0 48 48">
  <rect width="38" height="38" x="5" y="5" fill="#000" opacity=".2" rx="4"/>
  <path fill="#000" d="M14.974 36h4.646l4.282-14.74h.176L28.372 36h4.645l6.451-22.546h-5.207L30.53 29.154h-.198l-4.106-15.698h-4.458L17.65 29.12h-.188L13.73 13.454H8.523L14.974 36z"/>
</svg>
